X: 1
T: Up on Flat Top Mountain - D
M: 4/4
L: 1/8
R: Old Time
C: Al Petteway
K: D
d2|:"D"f2a2a2aa|fe3d2de|f2fa fed2|"G"B6b2|
"D"a2f2f(ee2)|fde(dd2)|ef3edBA|1 d6d2:|2 d2d2BAF2||
|:"Em"E4"D/F#"[F4A4]|"G"[G8B8]|"D"f2f2edBA|d2f2edBA|
"Em"E4"D/F#"[F4A4]|"G"[G8B8]|"D"f2f2edBA|1 d4efd2:|2 d4z2d2||

